!!!!SEGMENT: pl-sa--197-a-vi-1--009_anonim--requiem-es-lux-aeterna.krn
!!!cenid: 17xx:1680
!!!COM: Anonim
!!!COM-rismID: pe30004985
!!!CDT:
!!!CNT:
!!!OPR: Requiem Es
!!!OTL: Lux aeterna
!!!OMV: 009
!!!PDT:
!!!AGN: Sacred; Requiem
!!!SMS-siglum: PL-SA
!!!SMS-shelfmark: 197/A VI 1
!!!SMS-shelfwork: 001-009 M
!!!SMS-variant:
!!!SMS-altvar:
!!!NIFC-rismSourceID: 1001070179
!!!NIFC-rismChildID: 1001070179
!!!NIFC-islandoraID: none
!!!URL-pdf-islandora:
!!!URL-scan: https://bc.bdsandomierz.pl/dlibra/publication/1533/edition/1501/content @EN{Scan in the Sandomierz Diocese Digital Library} @PL{Skany w portalu Cyfrowa Biblioteka Diecezjalna w Sandomierzu}
!!!ONB-nifc: UWAGA: części Requiem: 1. Requiem, 2. Kirie, 3. Dies irae, 4. Domine Jesu Christe, 5. Sanctus, 6. Osanna, 7. Benedictus, 8. Agnus Dei, 9. Lux aeterna
!!!AIN: 1 alto 2 empty
!!!key:
**kern	**text	**kern	**text	**kern	**text
*part3	*part3	*part2	*part2	*part1	*part1
*staff3	*staff3	*staff2	*staff2	*staff1	*staff1
*Iempty	*	*Ialto	*	*Iempty	*
*I"Baſſo	*	*I"Alto	*	*I"Canto÷.	*
*I'B	*	*I'A	*	*I'C	*
*ICvox	*	*ICvox	*	*ICvox	*
*clefF4	*	*clefC3	*	*clefC1	*
*k[b-e-a-]	*	*k[b-e-a-]	*	*k[b-e-an]	*
*E-:	*	*E-:	*	*E-:	*
*M3/4	*	*M3/4	*	*M3/4	*
=1	=1	=1	=1	=1	=1
!LO:TX:t=P:problem:przy kluczu błędnie BB- B- A- E- AA-	!	!LO:TX:t=P:problem:przy kluczu błędnie e- B- A-	!	!LO:TX:t=P:problem:przy kluczu b- e- ee- an	!
!LO:TX:b:t=Alto	!	!	!	!LO:TX:a:t=Solo	!
!LO:N:vis=00	!	!LO:N:vis=00	!	!LO:N:vis=00	!
0.r	.	0.r	.	0.r	.
=2	=2	=2	=2	=2	=2
.	.	.	.	.	.
=3	=3	=3	=3	=3	=3
.	.	.	.	.	.
=4	=4	=4	=4	=4	=4
.	.	.	.	.	.
=5	=5	=5	=5	=5	=5
!LO:N:vis=00	!	!LO:N:vis=1	!	!LO:N:vis=1	!
0.r	.	2.r	.	2.r	.
=6	=6	=6	=6	=6	=6
.	.	4r	.	4r	.
*	*	*	*	*all\right	*
.	.	4f\	Lux	4dd\	Lux
!	!	!	!LO:SIC:v:o=e-	!	!LO:SIC:v:o=e-
.	.	(8g\L	ae-	(8ee-\L	ae-
.	.	8e-\J)	.	8dd\J)	.
=7	=7	=7	=7	=7	=7
!	!	!LO:N:vis=4	!	!	!
.	.	8f\	-ter-	4dd\	-ter-
.	.	(16e-\LL	.	.	.
.	.	16f\JJ)	.	.	.
.	.	4d\	-na	4b-\	-na
.	.	4r	.	4r	.
=8	=8	=8	=8	=8	=8
.	.	4r	.	4r	.
.	.	4f\	lux	4dd\	Lux
!	!	!	!LO:SIC:v:o=e-	!LO:LB:g=original	!LO:SIC:v:o=E-
.	.	8g\L	ae-	(8ee-\L	ae-
.	.	8e-\J	.	8cc\J)	.
=9	=9	=9	=9	=9	=9
!LO:N:vis=00	!	!	!	!	!
0.r	.	4f\	-ter-	4dd\	-ter-
.	.	(8d\L	-na	4b-\	-na
.	.	8f\J)	.	.	.
!	!	!	!LO:SIC:v:o=e-	!	!LO:SIC:v:o=E-
.	.	8e-\L	ae-	(8cc\L	ae-
.	.	8g\J	.	8dd\J)	.
!	!	!LO:LB:g=original	!	!	!
=10	=10	=10	=10	=10	=10
.	.	4f\	-ter-	4cc\	-ter-
.	.	4f\	-na	4cc\	-na
.	.	4r	.	4r	.
=11	=11	=11	=11	=11	=11
.	.	4r	.	4r	.
!	!	!LO:SIC:o=4a-\	!	!	!
.	.	4an	Lux	4cc\	Lux
!	!	!	!LO:SIC:v:o=e-	!	!LO:SIC:v:o=E-
.	.	(8b-\L	ae-	(8dd\L	ae-
.	.	8g\J)	.	8b-\J)	.
=12	=12	=12	=12	=12	=12
!	!	!LO:SIC:o=8a-\	!	!	!
!	!	!LO:N:vis=4	!	!	!
.	.	8an	-ter-	4cc\	-ter-
.	.	16g\LL	.	.	.
!	!	!LO:SIC:o=16a-\JJ	!	!	!
.	.	16an	.	.	.
.	.	4f\	-na	4a\	-na
.	.	4r	.	4r	.
=13	=13	=13	=13	=13	=13
!LO:N:vis=00	!	!	!	!	!
0.r	.	2.r	.	4.b-\	Lu-
.	.	.	.	8b-\	-ce-
.	.	.	.	4a\	-at
=14	=14	=14	=14	=14	=14
.	.	4.e-\	lu-	2g/	e-
.	.	8e-\	-ce-	.	.
.	.	4d\	-at	4g/	-is
=15	=15	=15	=15	=15	=15
.	.	2c/	e-	4.cc\	Lu-
.	.	.	.	8cc\	-ce-
.	.	4c/	-is	4b-\	-at
=16	=16	=16	=16	=16	=16
*	*	*	*	*2\right	*
.	.	4.f\	lu-	2a\	eis
.	.	8f\	-ce-	.	.
.	.	4e-\	-at	4a\	Lu-
=17	=17	=17	=17	=17	=17
*	*	*2\right	*	*	*
!LO:N:vis=00	!	!	!	!	!
0.r	.	2d\	e-	4.dd\	-ce-
.	.	.	.	8dd\	-at
.	.	4d\	-is	4cc\	e-
=18	=18	=18	=18	=18	=18
.	.	4g\	e-	8b-\L	.
.	.	.	.	8cc\	.
.	.	4f\	.	8b-\	.
.	.	.	.	8a\J	.
!	!	!	!	!LO:LB:g=original	!
.	.	8e-\L	.	4g/	-is
.	.	8d\J	.	.	.
=19	=19	=19	=19	=19	=19
.	.	4.c/	-is	4f/	Do-
.	.	.	.	4.f/	-mi-
.	.	8c/	Do-	.	.
.	.	4c/	-mi-	.	.
.	.	.	.	8en/	-ne
=20	=20	=20	=20	=20	=20
!	!	!LO:SIC:o=4B-/:t=lub 4c	!	!	!
.	.	4A	-ne	4f/	.
.	.	4r	.	4r	.
.	.	4r	.	4r	.
!	!	!LO:PB:g=original	!	!	!
=21	=21	=21	=21	=21	=21
!LO:N:vis=00	!	!LO:N:vis=00	!	!	!
0.r	.	0.r	.	0.r	.
=22	=22	=22	=22	=22	=22
.	.	.	.	.	.
=23	=23	=23	=23	=23	=23
.	.	.	.	.	.
=24	=24	=24	=24	=24	=24
.	.	.	.	.	.
=25	=25	=25	=25	=25	=25
!LO:N:vis=00	!	!	!	!	!
0.r	.	4r	.	4r	.
!	!	!LO:SIC:o=4a-\	!	!	!
.	.	4an	Lux	4cc\	Lux
!	!	!	!LO:SIC:v:o=e-	!	!LO:SIC:v:o=e-
.	.	8b-\L	ae-	(8dd\L	ae-
.	.	8g\J	.	8cc\J)	.
=26	=26	=26	=26	=26	=26
!	!	!LO:SIC:o=8a-\	!	!	!
!	!	!LO:N:vis=4	!	!	!
.	.	8an	-ter-	4cc\	-ter-
.	.	(16g\LL	.	.	.
!	!	!LO:SIC:o=16a-\JJ)	!	!	!
.	.	16an	.	.	.
.	.	4f\	-na	4a\	-na
.	.	4r	.	4r	.
=27	=27	=27	=27	=27	=27
.	.	2.r	.	2.r	.
=28	=28	=28	=28	=28	=28
.	.	4r	.	4r	.
.	.	4f\	lux	4dd\	Lux
!	!	!	!LO:SIC:v:o=e-	!	!LO:SIC:v:o=E-
.	.	8g\L	ae-	(8ee-\L	ae-
.	.	8e-\J	.	8cc\J)	.
=29	=29	=29	=29	=29	=29
!LO:N:vis=00	!	!LO:N:vis=4	!	!	!
0.r	.	8f\	-ter-	4dd\	-ter-
.	.	(16e-\LL	.	.	.
.	.	16f\JJ)	.	.	.
.	.	4d\	-na	4b-\	-na
!	!	!	!LO:SIC:v:o=e-	!	!LO:SIC:v:o=E-
.	.	4g\	ae-	4ee-\	ae-
=30	=30	=30	=30	=30	=30
.	.	4f\	-ter-	4dd\	-ter-
.	.	4d\	-na	4b-\	-na
.	.	4r	.	4r	.
=31	=31	=31	=31	=31	=31
!	!	!LO:N:vis=00	!	!	!
.	.	0.r	.	0.r	.
=32	=32	=32	=32	=32	=32
.	.	.	.	.	.
=33	=33	=33	=33	=33	=33
!LO:N:vis=0	!	!	!	!	!
1.r	.	.	.	.	.
=34	=34	=34	=34	=34	=34
.	.	.	.	.	.
=35	=35	=35	=35	=35	=35
!LO:N:vis=1	!	!LO:N:vis=1	!	!	!
2.r	.	2.r	.	2.r	.
!LO:LB:g=original	!	!LO:LB:g=original	!	!LO:LB:g=original	!
=36||	=36||	=36||	=36||	=36||	=36||
*k[b-e-a-]	*	*k[b-e-a-]	*	*k[b-e-a-]	*
*M2/2	*	*M2/2	*	*M2/2	*
*met(c|)	*	*met(c|)	*	*met(c|)	*
!LO:TX:t=P:problem:kolejność znaków BB- B- A- E- AA-	!	!LO:TX:t=P:problem:kolejność znaków e- B- A-	!	!LO:TX:t=P:problem:kolejność znaków b- ee- e- a-	!
!LO:TX:t=P:problem:oznaczenie metryczne obrócone alla breve	!	!LO:TX:t=P:problem:oznaczenie metryczne obrócone alla breve	!	!LO:TX:t=P:problem:oznaczenie metryczne obrócone C z kropką	!
00r	.	1f	Cum	1b-	Cum
=37	=37	=37	=37	=37	=37
.	.	2g\	ſan-	2ee-\	San-
.	.	2g\	-ctis	2ee-\	-ctis
=38	=38	=38	=38	=38	=38
.	.	1f	tu-	2ee-\	/San-
.	.	.	.	2dd\	-ctis/
=39	=39	=39	=39	=39	=39
.	.	2.g\	-is	1ee-	tu-
.	.	4f\	Cum	.	.
=40	=40	=40	=40	=40	=40
1r	.	2f\	San-	2dd\	-is
.	.	2f\	-ctis	2dd\	Cum
=41	=41	=41	=41	=41	=41
1F	Cum	2.f\	tu-	4cc\	San-
.	.	.	.	4an\	.
.	.	.	.	4b-\	.
.	.	4f\	-is	4cc\	.
=42	=42	=42	=42	=42	=42
2D/	San-	1f	in	4dd\	.
.	.	.	.	4cc\	.
*2\right	*	*	*	*	*
2G\	-ctis	.	.	4dd\	.
.	.	.	.	4b-\	.
=43	=43	=43	=43	=43	=43
!	!	!	!LO:SIC:v:o=e-	!	!
2C/	tu-	1e-	ae-	4cc\	.
.	.	.	.	4b-\	.
2F\	-is	.	.	4cc\	.
.	.	.	.	4an\	.
=44	=44	=44	=44	=44	=44
4BB-/	in	4f\	-ter-	4b-\	-ctis
!	!LO:SIC:v:o=e-	!	!	!	!
4BB-/	ae-	4d\	.	4dd\	.
4C/	-ter-	4e-\	.	(4b-\	tu-
4D/	.	4f\	.	4a-\)	.
=45	=45	=45	=45	=45	=45
4E-\	.	2g\	.	2b-\	-is
4F\	.	.	.	.	.
4G\	.	2g\	-num	2r	.
4E-\	.	.	.	.	.
=46	=46	=46	=46	=46	=46
4D/	.	1f	Cum	1b-	Cum
4BB-/	.	.	.	.	.
4C/	.	.	.	.	.
4D/	.	.	.	.	.
!	!	!	!	!LO::LB:g=original	!
=47	=47	=47	=47	=47	=47
2E-\	-num	2g\	San-	2g\	San-
1E-\	qu-	2g\	-ctis	2cc\	-ctis
=48-	=48	=48	=48	=48	=48
.	.	(4a-\	tu-	2f/	/San-
.	.	4g\)	.	.	.
2D/	-ia	(4a-\	-is	2b-\	-ctis/
.	.	4f\)	.	.	.
!	!	!LO:LB:g=original	!	!	!
=49	=49	=49	=49	=49	=49
2E-\	pi-	4g\	in	4e-/	tu-
!	!	!	!LO:SIC:v:o=e-	!	!
.	.	4f\	ae-	4f/	-is
2C/	-us	4e-\	-ter-	4g/	In
!	!	!	!	!	!LO:SIC:v:o=e-
.	.	4f\	.	4a-/	ae-
=50	=50	=50	=50	=50	=50
2BB-/	es	2d\	-num	4b-\	-ter-
.	.	.	.	4cc\	-num
2BB-/	cum	2r	.	4dd\	In
!	!	!	!	!	!LO:SIC:v:o=e-
.	.	.	.	4b-\	ae-
!LO:LB:g=original	!	!	!	!	!
=51	=51	=51	=51	=51	=51
1F	ſan-	2.f\	Cum	4an\	-ter-
.	.	.	.	4f/	-num
!	!	!	!	!	!LO:SIC:v:o=Ein
.	.	.	.	4g/	In
!	!	!	!	!	!LO:SIC:v:o=e-
.	.	4f\	.	4an\	ae-
=52	=52	=52	=52	=52	=52
2BB-/	-ctis	2d\	ſan-	2b-\	-ter-
!LO:TX:t=P:problem:przekreślona synkopowana wartość	!	!	!	!	!
1B-\	in	2g\	-ctis	2b-\	-num
=53-	=53	=53	=53	=53	=53
.	.	2c/	tu-	1cc	Cum
2An\	e-	2f\	-is	.	.
=54	=54	=54	=54	=54	=54
2B-\	-ter-	4B-/	in	4dd\	San-
!	!	!	!LO:SIC:v:o=e-	!	!
.	.	4d\	ae-	4b-\	-ctis
2BB-/	-num	4e-\	-ter-	(4cc\	tu-
.	.	4f\	.	4dd\)	.
=55	=55	=55	=55	=55	=55
1E-	Cum	2g\	-num	2ee-\	-is
.	.	2r	.	2r	.
=56	=56	=56	=56	=56	=56
2D\	ſan-	2.f\	Cum	4b-\	In
!	!	!	!	!	!LO:SIC:v:o=e-
.	.	.	.	4a-\	ae-
2G\	-ctis	.	.	4g\	-ter-
.	.	4f\	.	4b-\	-num
!	!	!	!	!LO:LB:g=original	!
=57	=57	=57	=57	=57	=57
2C/	tu-	2e-\	San-	(4ee-\	In
!	!	!	!	!	!LO:SIC:v:o=e-
.	.	.	.	4dd\)	ae-
2F\	-is	2a-\	-ctis	(4ee-\	-ter-
.	.	.	.	4cc\)	.
=58	=58	=58	=58	=58	=58
4D\	in	4f\	tu-	2dd\	-num
!	!LO:SIC:v:o=e-	!	!	!	!
4BB-/	ae-	4d\	.	.	.
4C/	-ter-	4e-\	-is	2cc\	.
4D/	.	4f\	.	.	.
=59	=59	=59	=59	=59	=59
4E-\	.	2.g\	in	(4b-\	In
!	!	!	!	!	!LO:SIC:v:o=e-
4F\	.	.	.	4a-\)	ae-
4G\	.	.	.	(4b-\	-[ter-
!	!	!	!LO:SIC:v:o=e-	!	!
4A-\	.	4f\	ae-	4cc\)	-num]
!	!	!LO:LB:g=original	!	!	!
=60	=60	=60	=60	=60	=60
2B-\	-num	4f\	-ter-	4b-\	In
!	!	!	!	!	!LO:SIC:v:o=e-
.	.	4f\	.	4a-\	ae-
2E-\	qu-	4e-\	-num	4g\	-ter-
.	.	4f\	.	4a-\	-num
=61	=61	=61	=61	=61	=61
2BB-/	-ia	(4d\	qu-	4f/	qu-
.	.	4e-\)	-ia	4g/	-ia
!LO:TX:t=P:problem:przekreślona synkopowana wartość	!	!	!	!	!
1BB-/	a pi-	(4f\	.	4a-\	pi-
.	.	4e-\)	.	4g\	-us
=62-	=62	=62	=62	=62	=62
.	.	2.e-\	pi-	2f/	/pi-
2BB-/	-us	.	.	2f/	-us/
.	.	4d\	-us	.	.
=63	=63	=63	=63	=63	=63
!	!	!LO:TX:b:t=T N W G P O S W P	!	!	!LO:SIC:v:o=est
!LO:N:vis=0	!	!LO:N:vis=0	!	!LO:N:vis=0	!
1E-	es	1e-	eſ	2g\	es
!	!	!	!	!LO:TX:a:t=Requiem\nut Supra	!
!	!	!	!	!LO:N:vis=0	!
.	.	.	.	2g\	.
==	==	==	==	==	==
*-	*-	*-	*-	*-	*-
!!!system-decoration: [(s1,s2,s3)]
!!!ENC: Andrzej Kubiczek
!!!END: 2020-12-29
!!!ENC: Marta Lawrence
!!!END: 2023-07-16
!!!YEC: Copyright 2022 Narodowy Instytut Fryderyka Chopina (https://polishscores.org)
!!!YEM: License CC-BY-4.0 (https://creativecommons.org/licenses/by/4.0)
